24x24/actions/office-chart-line-forecast.svg

<svg height="24" width="24" xmlns="http://www.w3.org/2000/svg"><path d="m4 3v14h-1v1h1v1h1v-1h14v-1h-14v-2h2.707l2.5-2.5-.707-.707-2.207 2.207h-2.293v-11zm13.5.793-2.707 2.707.707.707 2.707-2.707zm-4 4-2.707 2.707.707.707 2.707-2.707z" fill="#555e70" transform="translate(1 1)"/></svg>

<svg xmlns="http://www.w3.org/2000/svg" width="24" height="24"><defs><style id="current-color-scheme" type="text/css"></style></defs><path d="M4 3v14H3v1h1v1h1v-1h14v-1H5v-2h2.707l2.5-2.5-.707-.707L7.293 14H5V3H4zm13.5.793L14.793 6.5l.707.707L18.207 4.5l-.707-.707zm-4 4L10.793 10.5l.707.707L14.207 8.5l-.707-.707z" fill="currentColor" style="color:#555e70" transform="translate(1 1)"/></svg>
